X:256
T: Von dem heiligen Ritter sanct Joergen (Georg)
N: A0613
O: Europa, Mitteleuropa, Deutschland
N: Beuttner 1602 II No. 73.
R: Romanze, Ballade, Lied, religioeses Lied
M: 4/2
L: 1/4
K: G
G2 | c2c2G2G2 | c2c2d3
c | d4c2e2 | d4c4 | z2
c2c2e2 | d2d2G2A2 | G4
_B3c | d4c3_B | G6

@@@ Tune index: 569
